svg/u1f6a7.svg

<svg viewBox="0 0 128 128" xmlns="http://www.w3.org/2000/svg">
  <g>
    <path d="M28.19,121.77c0,0-1.75,2.23-6.3,2.23s-6.3-2.23-6.3-2.23V43.71h12.6V121.77z" fill="#9E9E9E"/>
    <path d="M28.19,121.77c0,0-1.75,2.23-6.3,2.23s-6.3-2.23-6.3-2.23V91.7c0,0,1.28-2.44,5.96-2.44 s6.64,2.44,6.64,2.44V121.77z" fill="#BDBDBD"/>
    <path d="M112.4,121.77c0,0-1.75,2.23-6.3,2.23c-4.55,0-6.3-2.23-6.3-2.23V43.71h12.6V121.77z" fill="#9E9E9E"/>
    <path d="M112.4,121.77c0,0-1.75,2.23-6.3,2.23c-4.55,0-6.3-2.23-6.3-2.23V91.7c0,0,1.28-2.44,5.96-2.44 s6.64,2.44,6.64,2.44V121.77z" fill="#BDBDBD"/>
    <path d="M121.27,81.86H6.73C5.22,81.86,4,80.64,4,79.13V44.17c0-1.51,1.22-2.73,2.73-2.73h114.54 c1.51,0,2.73,1.22,2.73,2.73v34.96C124,80.64,122.78,81.86,121.27,81.86z" fill="#9E9E9E"/>
    <path d="M121.27,43.44H6.73C5.22,43.44,4,44.66,4,46.17v34.96c0,1.51,1.22,2.73,2.73,2.73h114.54 c1.51,0,2.73-1.22,2.73-2.73V46.17C124,44.66,122.78,43.44,121.27,43.44z" fill="#FFD600"/>
    <polygon points="17.43,43.44 4,56.87 4,76.67 37.23,43.44 " fill="#212121"/>
    <polygon points="55.1,43.44 14.69,83.86 34.49,83.86 74.9,43.44 " fill="#212121"/>
    <polygon points="92.78,43.44 52.36,83.86 72.16,83.86 112.57,43.44 " fill="#212121"/>
    <polygon points="124,49.89 90.03,83.86 109.83,83.86 124,69.69 " fill="#212121"/>
    <path d="M113.8,45.19H98.41c-1.44,0-2.5-0.94-2.16-1.9l1.07-6.71h17.55l1.07,6.71 C116.3,44.26,115.24,45.19,113.8,45.19z" fill="#E2A610"/>
    <circle cx="106.1" cy="23.71" r="12.71" fill="#FFCA28"/>
    <circle cx="106.1" cy="23.71" r="9.39" fill="#FF5722"/>
    <path d="M114.88,36.68H97.33c0,0,0.06-2.8,5.08-2.8c5.02,0,7.44,0,7.44,0 C115.16,33.88,114.88,36.68,114.88,36.68z" fill="#FFCA28"/>
    <path d="M107.21,19.21l2.4-3.1c0.11-0.14,0.33-0.03,0.29,0.14l-0.93,3.81c-0.22,0.89,0.46,1.75,1.38,1.73 l3.92-0.06c0.18,0,0.23,0.24,0.07,0.32l-3.56,1.65c-0.83,0.39-1.07,1.45-0.49,2.16l2.49,3.03c0.11,0.14-0.04,0.33-0.2,0.25 l-3.51-1.75c-0.82-0.41-1.8,0.06-2,0.96l-0.82,3.84c-0.04,0.18-0.29,0.18-0.32,0l-0.82-3.84c-0.19-0.9-1.18-1.37-2-0.96l-3.51,1.75 c-0.16,0.08-0.32-0.12-0.2-0.25l2.49-3.03c0.58-0.71,0.34-1.77-0.49-2.16l-3.56-1.65c-0.16-0.08-0.11-0.32,0.07-0.32l3.92,0.06 c0.92,0.01,1.6-0.84,1.38-1.73l-0.93-3.81c-0.04-0.17,0.18-0.28,0.29-0.14l2.4,3.1C105.56,19.93,106.65,19.93,107.21,19.21z" fill="#FFD5CA"/>
    <path d="M29.59,45.19H14.2c-1.44,0-2.5-0.94-2.16-1.9l1.07-6.71h17.55l1.07,6.71 C32.09,44.26,31.03,45.19,29.59,45.19z" fill="#E2A610"/>
    <circle cx="21.9" cy="23.71" r="12.71" fill="#FFCA28"/>
    <circle cx="21.9" cy="23.71" r="9.39" fill="#FF5722"/>
    <path d="M30.67,36.68H13.12c0,0,0.06-2.8,5.08-2.8s7.44,0,7.44,0C30.95,33.88,30.67,36.68,30.67,36.68z" fill="#FFCA28"/>
    <path d="M23,19.21l2.4-3.1c0.11-0.14,0.33-0.03,0.29,0.14l-0.93,3.81c-0.22,0.89,0.46,1.75,1.38,1.73 l3.92-0.06c0.18,0,0.23,0.24,0.07,0.32l-3.56,1.65c-0.83,0.39-1.07,1.45-0.49,2.16l2.49,3.03c0.11,0.14-0.04,0.33-0.2,0.25 l-3.51-1.75c-0.82-0.41-1.8,0.06-2,0.96l-0.82,3.84c-0.04,0.18-0.29,0.18-0.32,0l-0.82-3.84c-0.19-0.9-1.18-1.37-2-0.96l-3.51,1.75 c-0.16,0.08-0.32-0.12-0.2-0.25l2.49-3.03c0.58-0.71,0.34-1.77-0.49-2.16l-3.56-1.65c-0.16-0.08-0.11-0.32,0.07-0.32l3.92,0.06 c0.92,0.01,1.6-0.84,1.38-1.73l-0.93-3.81c-0.04-0.17,0.18-0.28,0.29-0.14l2.4,3.1C21.35,19.93,22.44,19.93,23,19.21z" fill="#FFD5CA"/>
  </g>
</svg>

<svg viewBox="0 0 128 128" xmlns="http://www.w3.org/2000/svg">
  <defs/>
  <path d="M28.19,121.77 C28.19,121.77 26.44,124 21.89,124 C17.34,124 15.59,121.77 15.59,121.77 L15.59,43.71 L28.19,43.71 L28.19,121.77 Z" fill="#9E9E9E"/>
  <path d="M28.19,121.77 C28.19,121.77 26.44,124 21.89,124 C17.34,124 15.59,121.77 15.59,121.77 L15.59,91.7 C15.59,91.7 16.87,89.26 21.55,89.26 C26.23,89.26 28.19,91.7 28.19,91.7 L28.19,121.77 Z" fill="#BDBDBD"/>
  <path d="M112.4,121.77 C112.4,121.77 110.65,124 106.1,124 C101.55,124 99.8,121.77 99.8,121.77 L99.8,43.71 L112.4,43.71 L112.4,121.77 Z" fill="#9E9E9E"/>
  <path d="M112.4,121.77 C112.4,121.77 110.65,124 106.1,124 C101.55,124 99.8,121.77 99.8,121.77 L99.8,91.7 C99.8,91.7 101.08,89.26 105.76,89.26 C110.44,89.26 112.4,91.7 112.4,91.7 L112.4,121.77 Z" fill="#BDBDBD"/>
  <path d="M121.27,81.86 L6.73,81.86 C5.22,81.86 4,80.64 4,79.13 L4,44.17 C4,42.66 5.22,41.44 6.73,41.44 L121.27,41.44 C122.78,41.44 124,42.66 124,44.17 L124,79.13 C124,80.64 122.78,81.86 121.27,81.86 Z" fill="#9E9E9E"/>
  <path d="M121.27,43.44 L6.73,43.44 C5.22,43.44 4,44.66 4,46.17 L4,81.13 C4,82.64 5.22,83.86 6.73,83.86 L121.27,83.86 C122.78,83.86 124,82.64 124,81.13 L124,46.17 C124,44.66 122.78,43.44 121.27,43.44 Z" fill="#FFD600"/>
  <path d="M17.43,43.44 L4,56.87 L4,76.67 L37.23,43.44 Z" fill="#212121"/>
  <path d="M55.1,43.44 L14.69,83.86 L34.49,83.86 L74.9,43.44 Z" fill="#212121"/>
  <path d="M92.78,43.44 L52.36,83.86 L72.16,83.86 L112.57,43.44 Z" fill="#212121"/>
  <path d="M124,49.89 L90.03,83.86 L109.83,83.86 L124,69.69 Z" fill="#212121"/>
  <path d="M113.8,45.19 L98.41,45.19 C96.97,45.19 95.91,44.25 96.25,43.29 L97.32,36.58 L114.87,36.58 L115.94,43.29 C116.3,44.26 115.24,45.19 113.8,45.19 Z" fill="#E2A610"/>
  <path d="M118.81,23.71 A12.71 12.71 0 1 1 93.39,23.71 A12.71 12.71 0 1 1 118.81,23.71 Z" fill="#FFCA28"/>
  <path d="M115.49,23.71 A9.39 9.39 0 1 1 96.71,23.71 A9.39 9.39 0 1 1 115.49,23.71 Z" fill="#FF5722"/>
  <path d="M114.88,36.68 L97.33,36.68 C97.33,36.68 97.39,33.88 102.41,33.88 C107.43,33.88 109.85,33.88 109.85,33.88 C115.16,33.88 114.88,36.68 114.88,36.68 Z" fill="#FFCA28"/>
  <path d="M107.21,19.21 L109.61,16.11 C109.72,15.97 109.94,16.08 109.9,16.25 L108.97,20.06 C108.75,20.95 109.43,21.81 110.35,21.79 L114.27,21.73 C114.45,21.73 114.5,21.97 114.34,22.05 L110.78,23.7 C109.95,24.09 109.71,25.15 110.29,25.86 L112.78,28.89 C112.89,29.03 112.74,29.22 112.58,29.14 L109.07,27.39 C108.25,26.98 107.27,27.45 107.07,28.35 L106.25,32.19 C106.21,32.37 105.96,32.37 105.93,32.19 L105.11,28.35 C104.92,27.45 103.93,26.98 103.11,27.39 L99.6,29.14 C99.44,29.22 99.28,29.02 99.4,28.89 L101.89,25.86 C102.47,25.15 102.23,24.09 101.4,23.7 L97.84,22.05 C97.68,21.97 97.73,21.73 97.91,21.73 L101.83,21.79 C102.75,21.8 103.43,20.95 103.21,20.06 L102.28,16.25 C102.24,16.08 102.46,15.97 102.57,16.11 L104.97,19.21 C105.56,19.93 106.65,19.93 107.21,19.21 Z" fill="#FFD5CA"/>
  <path d="M29.59,45.19 L14.2,45.19 C12.76,45.19 11.7,44.25 12.04,43.29 L13.11,36.58 L30.66,36.58 L31.73,43.29 C32.09,44.26 31.03,45.19 29.59,45.19 Z" fill="#E2A610"/>
  <path d="M34.61,23.71 A12.71 12.71 0 1 1 9.19,23.71 A12.71 12.71 0 1 1 34.61,23.71 Z" fill="#FFCA28"/>
  <path d="M31.29,23.71 A9.39 9.39 0 1 1 12.51,23.71 A9.39 9.39 0 1 1 31.29,23.71 Z" fill="#FF5722"/>
  <path d="M30.67,36.68 L13.12,36.68 C13.12,36.68 13.18,33.88 18.2,33.88 C23.22,33.88 25.64,33.88 25.64,33.88 C30.95,33.88 30.67,36.68 30.67,36.68 Z" fill="#FFCA28"/>
  <path d="M23,19.21 L25.4,16.11 C25.51,15.97 25.73,16.08 25.69,16.25 L24.76,20.06 C24.54,20.95 25.22,21.81 26.14,21.79 L30.06,21.73 C30.24,21.73 30.29,21.97 30.13,22.05 L26.57,23.7 C25.74,24.09 25.5,25.15 26.08,25.86 L28.57,28.89 C28.68,29.03 28.53,29.22 28.37,29.14 L24.86,27.39 C24.04,26.98 23.06,27.45 22.86,28.35 L22.04,32.19 C22,32.37 21.75,32.37 21.72,32.19 L20.9,28.35 C20.71,27.45 19.72,26.98 18.9,27.39 L15.39,29.14 C15.23,29.22 15.07,29.02 15.19,28.89 L17.68,25.86 C18.26,25.15 18.02,24.09 17.19,23.7 L13.63,22.05 C13.47,21.97 13.52,21.73 13.7,21.73 L17.62,21.79 C18.54,21.8 19.22,20.95 19,20.06 L18.07,16.25 C18.03,16.08 18.25,15.97 18.36,16.11 L20.76,19.21 C21.35,19.93 22.44,19.93 23,19.21 Z" fill="#FFD5CA"/>
</svg>
